;FLAVOR:Marlin
;TIME:9898
;Filament used: 8.58796m
;Layer height: 0.15
;MINX:8.112
;MINY:9.505
;MINZ:0.3
;MAXX:105.712
;MAXY:107.065
;MAXZ:6
;Generated with Cura_SteamEngine 5.2.1
M140 S60
M105
M190 S60
M104 S200
M105
M109 S200
M82 ;absolute extrusion mode
G21 ;metric values
 G90 ;absolute positioning
 M82 ;set extruder to absolute mode
 M107 ;start with the fan off
 G28 X0 Y0 ;move X/Y to min endstops
 G28 Z0 ;move Z to min endstops
 G1 Z15.0 F120 ;move the platform down 15mm
 G92 E0 ;zero the extruded length
 G1 F200 E6 ;extrude 6 mm of feed stock
 G92 E0 ;zero the extruded length again
 G1 F120 
 ;Put printing message on LCD screen
 M117 Printing...
G92 E0
G92 E0
G1 F1500 E-6.5
;LAYER_COUNT:39
;LAYER:0
M107
G0 F3600 X11.847 Y13.834 Z0.3
;TYPE:SKIRT
G1 F1500 E0
G1 F1800 X13.114 Y12.645 E0.08669
G1 X14.511 Y11.63 E0.17284
G1 X16.037 Y10.791 E0.25972
G1 X17.648 Y10.153 E0.34616
G1 X19.317 Y9.723 E0.43215
G1 X21.049 Y9.505 E0.51924
G1 X92.774 Y9.505 E4.09762
G1 X94.5 Y9.722 E4.1844
G1 X96.187 Y10.157 E4.27132
G1 X97.784 Y10.789 E4.35701
G1 X99.314 Y11.63 E4.44411
G1 X100.711 Y12.645 E4.53026
G1 X101.979 Y13.835 E4.61702
G1 X103.085 Y15.172 E4.70359
G1 X104.01 Y16.628 E4.78965
G1 X104.751 Y18.203 E4.87648
G1 X105.286 Y19.853 E4.96302
G1 X105.609 Y21.548 E5.04911
G1 X105.712 Y23.172 E5.13029
G1 X105.712 Y93.397 E8.63383
G1 X105.61 Y95.016 E8.71476
G1 X105.283 Y96.725 E8.80157
G1 X104.752 Y98.363 E8.88748
G1 X104.014 Y99.934 E8.97408
G1 X103.079 Y101.404 E9.06099
G1 X101.981 Y102.734 E9.14704
G1 X100.715 Y103.922 E9.23365
G1 X99.308 Y104.945 E9.32044
G1 X97.787 Y105.779 E9.40698
G1 X96.183 Y106.416 E9.49309
G1 X94.502 Y106.848 E9.57968
G1 X92.774 Y107.065 E9.66656
G1 X21.049 Y107.065 E13.24494
G1 X19.324 Y106.848 E13.33168
G1 X17.644 Y106.416 E13.41822
G1 X16.033 Y105.777 E13.50468
G1 X14.516 Y104.945 E13.591
G1 X13.11 Y103.922 E13.67775
G1 X11.847 Y102.737 E13.76416
G1 X10.744 Y101.404 E13.85047
G1 X9.809 Y99.932 E13.93747
G1 X9.074 Y98.366 E14.02378
G1 X8.54 Y96.719 E14.11016
G1 X8.214 Y95.022 E14.19637
G1 X8.112 Y93.398 E14.27755
G1 X8.112 Y23.173 E17.78109
G1 X8.214 Y21.549 E17.86227
G1 X8.541 Y19.848 E17.94869
G1 X9.072 Y18.207 E18.03474
G1 X9.811 Y16.636 E18.12136
G1 X10.742 Y15.169 E18.20804
G1 X11.847 Y13.834 E18.2945
G0 F3600 X12.14 Y14.107
G1 F1800 X13.366 Y12.957 E18.37836
G1 X14.729 Y11.966 E18.46244
G1 X16.205 Y11.155 E18.54646
G1 X17.767 Y10.536 E18.63028
G1 X19.397 Y10.116 E18.71426
G1 X21.076 Y9.905 E18.79868
G1 X92.748 Y9.905 E22.37441
G1 X94.431 Y10.117 E22.45904
G1 X96.059 Y10.537 E22.54292
G1 X97.615 Y11.152 E22.6264
G1 X99.096 Y11.966 E22.71071
G1 X100.459 Y12.957 E22.79478
G1 X101.686 Y14.108 E22.87872
G1 X102.757 Y15.403 E22.96256
G1 X103.661 Y16.826 E23.04667
G1 X104.376 Y18.346 E23.13047
G1 X104.898 Y19.957 E23.21496
G1 X105.212 Y21.6 E23.29841
G1 X105.312 Y23.181 E23.37744
G1 X105.312 Y93.388 E26.88008
G1 X105.212 Y94.971 E26.95922
G1 X104.898 Y96.613 E27.04262
G1 X104.377 Y98.221 E27.12695
G1 X103.664 Y99.739 E27.21062
G1 X102.758 Y101.165 E27.29491
G1 X101.683 Y102.466 E27.37911
G1 X100.457 Y103.615 E27.46294
G1 X99.099 Y104.604 E27.54675
G1 X97.616 Y105.417 E27.63113
G1 X96.056 Y106.035 E27.71484
G1 X94.432 Y106.453 E27.7985
G1 X92.748 Y106.665 E27.88318
G1 X21.076 Y106.665 E31.45891
G1 X19.396 Y106.454 E31.54339
G1 X17.771 Y106.036 E31.6271
G1 X16.204 Y105.415 E31.71119
G1 X14.726 Y104.603 E31.79532
G1 X13.368 Y103.615 E31.87911
G1 X12.14 Y102.463 E31.96311
G1 X11.069 Y101.169 E32.04691
G1 X10.164 Y99.745 E32.13109
G1 X9.443 Y98.21 E32.2157
G1 X8.929 Y96.622 E32.29897
G1 X8.612 Y94.969 E32.38294
G1 X8.512 Y93.389 E32.46193
G1 X8.512 Y23.182 E35.96457
G1 X8.612 Y21.604 E36.04345
G1 X8.928 Y19.951 E36.12742
G1 X9.446 Y18.355 E36.21113
G1 X10.165 Y16.824 E36.29551
G1 X11.067 Y15.404 E36.37944
G1 X12.14 Y14.107 E36.46342
G0 F3600 X12.429 Y14.386
G1 F1800 X13.627 Y13.26 E36.54545
G1 X14.94 Y12.306 E36.62642
G1 X16.374 Y11.518 E36.70805
G1 X17.896 Y10.916 E36.78971
G1 X19.476 Y10.509 E36.87111
G1 X21.094 Y10.305 E36.95247
G1 X92.73 Y10.305 E40.5264
G1 X94.351 Y10.509 E40.60791
G1 X95.93 Y10.916 E40.68927
G1 X97.447 Y11.516 E40.77065
G1 X98.885 Y12.306 E40.85251
G1 X100.198 Y13.26 E40.93348
G1 X101.398 Y14.387 E41.01561
G1 X102.432 Y15.638 E41.09658
G1 X103.308 Y17.017 E41.17809
G1 X104.006 Y18.499 E41.25982
G1 X104.509 Y20.051 E41.34121
G1 X104.815 Y21.653 E41.42258
G1 X104.912 Y23.19 E41.49942
G1 X104.906 Y93.474 E45.0059
G1 X104.815 Y94.918 E45.07808
G1 X104.509 Y96.519 E45.1594
G1 X104.007 Y98.067 E45.24059
G1 X103.31 Y99.551 E45.32239
G1 X102.431 Y100.933 E45.4041
G1 X101.398 Y102.184 E45.48504
G1 X100.199 Y103.308 E45.56704
G1 X98.885 Y104.265 E45.64813
G1 X97.445 Y105.055 E45.73008
G1 X95.937 Y105.652 E45.81099
G1 X94.344 Y106.062 E45.89306
G1 X92.73 Y106.265 E45.97422
G1 X21.094 Y106.265 E49.54815
G1 X19.474 Y106.061 E49.62961
G1 X17.894 Y105.655 E49.711
G1 X16.38 Y105.054 E49.79227
G1 X14.941 Y104.265 E49.87414
G1 X13.626 Y103.308 E49.95528
G1 X12.429 Y102.185 E50.03717
G1 X11.393 Y100.933 E50.11824
G1 X10.516 Y99.554 E50.19977
G1 X9.818 Y98.067 E50.28173
G1 X9.317 Y96.522 E50.36276
G1 X9.009 Y94.914 E50.44444
G1 X8.912 Y93.38 E50.52113
G1 X8.918 Y23.096 E54.02761
G1 X9.009 Y21.656 E54.09959
G1 X9.318 Y20.046 E54.18138
G1 X9.816 Y18.507 E54.26208
G1 X10.517 Y17.016 E54.34428
G1 X11.39 Y15.64 E54.42558
G1 X12.429 Y14.386 E54.50683
G0 F3600 X12.722 Y14.659
G1 F1800 X13.88 Y13.572 E54.58607
G1 X15.158 Y12.643 E54.66489
G1 X16.542 Y11.882 E54.74369
G1 X18.022 Y11.296 E54.8231
G1 X19.549 Y10.902 E54.90178
G1 X21.119 Y10.705 E54.98072
G1 X92.704 Y10.705 E58.55211
G1 X94.279 Y10.903 E58.63131
G1 X95.804 Y11.296 E58.70988
G1 X97.279 Y11.88 E58.78902
G1 X98.667 Y12.643 E58.86804
G1 X99.945 Y13.572 E58.94687
G1 X101.105 Y14.66 E59.02621
G1 X102.108 Y15.874 E59.10478
G1 X102.956 Y17.209 E59.18368
G1 X103.632 Y18.643 E59.26278
G1 X104.121 Y20.153 E59.34196
G1 X104.419 Y21.71 E59.42105
G1 X104.512 Y23.284 E59.49971
G1 X104.507 Y93.449 E63.00026
G1 X104.418 Y94.866 E63.07109
G1 X104.121 Y96.417 E63.14988
G1 X103.633 Y97.923 E63.22886
G1 X102.959 Y99.357 E63.30791
G1 X102.106 Y100.699 E63.38724
G1 X101.105 Y101.91 E63.46563
G1 X99.947 Y102.997 E63.54487
G1 X98.666 Y103.929 E63.6239
G1 X97.279 Y104.69 E63.70283
G1 X95.806 Y105.274 E63.78188
G1 X94.274 Y105.668 E63.8608
G1 X92.704 Y105.865 E63.93974
G1 X21.119 Y105.865 E67.51113
G1 X19.554 Y105.668 E67.58983
G1 X18.013 Y105.272 E67.66921
G1 X16.548 Y104.691 E67.74784
G1 X15.159 Y103.929 E67.82688
G1 X13.878 Y102.997 E67.90591
G1 X12.726 Y101.916 E67.98472
G1 X11.714 Y100.693 E68.06392
G1 X10.867 Y99.36 E68.14271
G1 X10.188 Y97.915 E68.22237
G1 X9.707 Y96.428 E68.30034
G1 X9.405 Y94.857 E68.38015
G1 X9.312 Y93.286 E68.45867
G1 X9.317 Y23.121 E71.95921
G1 X9.406 Y21.709 E72.0298
G1 X9.706 Y20.147 E72.10915
G1 X10.19 Y18.651 E72.18759
G1 X10.867 Y17.21 E72.26703
G1 X11.716 Y15.874 E72.346
G1 X12.722 Y14.659 E72.4247
G0 F3600 X13.015 Y14.932
G1 F1800 X14.133 Y13.882 E72.50122
G1 X15.37 Y12.983 E72.57751
G1 X16.723 Y12.24 E72.65452
G1 X18.134 Y11.681 E72.73024
G1 X19.628 Y11.296 E72.80721
G1 X21.145 Y11.105 E72.88349
G1 X92.678 Y11.105 E76.45228
G1 X94.2 Y11.296 E76.52881
G1 X95.685 Y11.68 E76.60534
G1 X97.103 Y12.241 E76.68141
G1 X98.455 Y12.983 E76.75836
G1 X99.692 Y13.882 E76.83465
G1 X100.807 Y14.929 E76.91096
G1 X101.786 Y16.113 E76.9876
G1 X102.604 Y17.4 E77.06368
G1 X103.261 Y18.796 E77.14066
G1 X103.732 Y20.25 E77.21691
G1 X104.02 Y21.758 E77.2935
G1 X104.108 Y23.145 E77.36284
G1 X104.108 Y93.423 E80.86902
G1 X104.02 Y94.813 E80.93851
G1 X103.732 Y96.32 E81.01506
G1 X103.261 Y97.774 E81.09131
G1 X102.607 Y99.165 E81.16799
G1 X101.786 Y100.457 E81.24436
G1 X100.808 Y101.642 E81.32102
G1 X99.69 Y102.689 E81.39743
G1 X98.456 Y103.588 E81.4736
G1 X97.108 Y104.327 E81.5503
G1 X95.68 Y104.893 E81.62693
G1 X94.203 Y105.273 E81.70302
G1 X92.678 Y105.465 E81.77971
G1 X21.145 Y105.465 E85.3485
G1 X19.623 Y105.274 E85.42503
G1 X18.144 Y104.893 E85.50123
G1 X16.717 Y104.327 E85.57782
G1 X15.369 Y103.588 E85.65451
G1 X14.135 Y102.689 E85.73068
G1 X13.019 Y101.643 E85.80699
G1 X12.038 Y100.457 E85.88378
G1 X11.218 Y99.168 E85.96
G1 X10.563 Y97.771 E86.03697
G1 X10.092 Y96.318 E86.11318
G1 X9.804 Y94.817 E86.18943
G1 X9.716 Y93.425 E86.25901
G1 X9.716 Y23.146 E89.76525
G1 X9.804 Y21.757 E89.83468
G1 X10.092 Y20.25 E89.91123
G1 X10.563 Y18.799 E89.98734
G1 X11.216 Y17.408 E90.064
G1 X12.043 Y16.105 E90.141
G1 X13.015 Y14.932 E90.217
G0 F3600 X13.308 Y15.206
G1 F1800 X14.39 Y14.19 E90.29105
G1 X15.591 Y13.317 E90.36512
G1 X16.888 Y12.605 E90.43894
G1 X18.26 Y12.061 E90.51257
G1 X19.7 Y11.69 E90.58676
G1 X21.171 Y11.505 E90.66073
G1 X92.652 Y11.505 E94.22693
G1 X94.128 Y11.691 E94.30115
G1 X95.559 Y12.06 E94.37488
G1 X96.939 Y12.606 E94.44892
G1 X98.234 Y13.317 E94.52263
G1 X99.435 Y14.19 E94.5967
G1 X100.518 Y15.207 E94.67082
G1 X101.459 Y16.344 E94.74445
G1 X102.255 Y17.598 E94.81856
G1 X102.887 Y18.94 E94.89256
G1 X103.344 Y20.351 E94.96656
G1 X103.622 Y21.805 E95.04041
G1 X103.712 Y23.284 E95.11433
G1 X103.708 Y93.398 E98.61234
G1 X103.622 Y94.768 E98.68082
G1 X103.344 Y96.219 E98.75453
G1 X102.887 Y97.63 E98.82852
G1 X102.256 Y98.971 E98.90246
G1 X101.461 Y100.223 E98.97645
G1 X100.518 Y101.364 E99.0503
G1 X99.437 Y102.378 E99.12425
G1 X98.235 Y103.253 E99.19842
G1 X96.939 Y103.963 E99.27215
G1 X95.559 Y104.511 E99.34623
G1 X94.123 Y104.88 E99.42019
G1 X92.652 Y105.065 E99.49416
G1 X21.171 Y105.065 E103.06036
G1 X19.703 Y104.88 E103.13418
G1 X18.263 Y104.51 E103.20836
G1 X16.888 Y103.965 E103.28215
G1 X15.589 Y103.252 E103.35608
G1 X14.388 Y102.378 E103.43018
G1 X13.307 Y101.365 E103.50409
G1 X12.363 Y100.222 E103.57805
G1 X11.569 Y98.974 E103.65185
G1 X10.937 Y97.627 E103.72608
G1 X10.48 Y96.218 E103.79998
G1 X10.202 Y94.768 E103.87364
G1 X10.112 Y93.286 E103.94771
G1 X10.116 Y23.172 E107.44571
G1 X10.203 Y21.801 E107.51425
G1 X10.48 Y20.352 E107.58785
G1 X10.937 Y18.944 E107.6617
G1 X11.57 Y17.595 E107.73604
G1 X12.361 Y16.35 E107.80963
G1 X13.308 Y15.206 E107.88373
G0 F3600 X13.601 Y15.479
G1 F1800 X14.642 Y14.502 E107.95495
G1 X15.804 Y13.657 E108.02663
G1 X17.061 Y12.967 E108.09817
G1 X18.391 Y12.44 E108.16954
G1 X19.77 Y12.085 E108.24059
G1 X21.197 Y11.905 E108.31234
G1 X92.626 Y11.905 E111.87595
G1 X94.055 Y12.085 E111.94781
G1 X95.433 Y12.44 E112.0188
G1 X96.764 Y12.967 E112.09022
G1 X98.021 Y13.657 E112.16176
G1 X99.183 Y14.502 E112.23344
G1 X100.225 Y15.48 E112.30474
G1 X101.138 Y16.584 E112.37621
G1 X101.903 Y17.789 E112.44742
G1 X102.515 Y19.088 E112.51906
G1 X102.955 Y20.446 E112.59028
G1 X103.225 Y21.857 E112.66195
G1 X103.312 Y23.284 E112.73327
G1 X103.309 Y93.373 E116.23003
G1 X103.224 Y94.715 E116.29712
G1 X102.955 Y96.125 E116.36873
G1 X102.516 Y97.479 E116.43974
G1 X101.905 Y98.78 E116.51145
G1 X101.138 Y99.986 E116.58276
G1 X100.225 Y101.091 E116.65427
G1 X99.18 Y102.071 E116.72574
G1 X98.028 Y102.909 E116.79681
G1 X96.765 Y103.602 E116.86869
G1 X95.43 Y104.131 E116.94033
G1 X94.053 Y104.486 E117.01127
G1 X92.626 Y104.665 E117.08302
G1 X21.197 Y104.665 E120.64663
G1 X19.775 Y104.486 E120.71814
G1 X18.391 Y104.131 E120.78942
G1 X17.06 Y103.602 E120.86088
G1 X15.797 Y102.909 E120.93275
G1 X14.645 Y102.071 E121.00382
G1 X13.6 Y101.091 E121.07529
G1 X12.686 Y99.986 E121.14684
G1 X11.921 Y98.782 E121.21801
G1 X11.309 Y97.479 E121.28983
G1 X10.869 Y96.121 E121.36104
G1 X10.6 Y94.716 E121.43241
G1 X10.512 Y93.286 E121.50389
G1 X10.515 Y23.197 E125.00065
G1 X10.6 Y21.854 E125.06778
G1 X10.87 Y20.446 E125.13931
G1 X11.308 Y19.095 E125.21016
G1 X11.919 Y17.793 E125.28192
G1 X12.688 Y16.581 E125.35353
G1 X13.601 Y15.479 E125.42492
G0 F3600 X13.89 Y15.757
G1 F1800 X14.903 Y14.806 E125.49424
G1 X16.014 Y13.998 E125.56278
G1 X17.232 Y13.329 E125.63211
G1 X18.51 Y12.823 E125.70069
G1 X19.85 Y12.478 E125.76972
G1 X21.224 Y12.305 E125.83881
G1 X92.6 Y12.305 E129.39977
G1 X93.975 Y12.478 E129.46891
G1 X95.314 Y12.823 E129.5379
G1 X96.593 Y13.329 E129.60652
G1 X97.811 Y13.998 E129.67585
G1 X98.922 Y14.806 E129.74438
G1 X99.936 Y15.758 E129.81377
G1 X100.81 Y16.815 E129.8822
G1 X101.555 Y17.987 E129.95149
G1 X102.14 Y19.23 E130.02002
G1 X102.568 Y20.55 E130.08925
G1 X102.827 Y21.909 E130.15828
G1 X102.912 Y23.284 E130.22701
G1 X102.91 Y93.348 E133.72251
G1 X102.827 Y94.662 E133.7882
G1 X102.568 Y96.02 E133.85717
G1 X102.142 Y97.334 E133.92609
G1 X101.554 Y98.585 E133.99505
G1 X100.81 Y99.755 E134.06422
G1 X99.936 Y100.813 E134.13269
G1 X98.922 Y101.764 E134.20204
G1 X97.808 Y102.575 E134.27079
G1 X96.593 Y103.241 E134.33992
G1 X95.319 Y103.746 E134.40829
G1 X93.973 Y104.092 E134.47762
G1 X92.6 Y104.265 E134.54666
G1 X21.223 Y104.265 E138.10768
G1 X19.844 Y104.091 E138.17702
G1 X18.513 Y103.749 E138.24558
G1 X17.231 Y103.241 E138.31438
G1 X16.017 Y102.575 E138.38346
G1 X14.903 Y101.764 E138.45221
G1 X13.889 Y100.813 E138.52156
G1 X13.014 Y99.755 E138.59006
G1 X12.27 Y98.585 E138.65923
G1 X11.683 Y97.335 E138.72813
G1 X11.257 Y96.021 E138.79704
G1 X10.997 Y94.662 E138.86608
G1 X10.912 Y93.286 E138.93485
G1 X10.914 Y23.222 E142.43036
G1 X10.997 Y21.908 E142.49605
G1 X11.257 Y20.549 E142.56508
G1 X11.683 Y19.236 E142.63395
G1 X12.27 Y17.987 E142.7028
G1 X13.013 Y16.816 E142.77199
G1 X13.89 Y15.757 E142.84059
G0 F3600 X14.16 Y16.058
G1 F1800 X15.186 Y15.095 E142.91079
G1 X16.264 Y14.317 E142.97711
G1 X17.435 Y13.679 E143.04364
G1 X18.602 Y13.217 E143.10626
G1 X19.887 Y12.881 E143.17253
G1 X21.285 Y12.705 E143.24282
G1 X92.614 Y12.71 E146.80144
G1 X93.938 Y12.881 E146.86804
G1 X95.222 Y13.217 E146.93426
G1 X96.39 Y13.679 E146.99693
G1 X97.561 Y14.317 E147.06345
G1 X98.639 Y15.095 E147.12978
G1 X99.614 Y16.004 E147.19628
G1 X100.507 Y17.084 E147.2662
G1 X101.218 Y18.211 E147.33268
G1 X101.753 Y19.347 E147.39533
G1 X102.168 Y20.612 E147.46175
G1 X102.432 Y21.995 E147.53199
G1 X102.511 Y23.246 E147.59453
G1 X102.511 Y93.323 E151.09068
G1 X102.432 Y94.576 E151.15332
G1 X102.168 Y95.958 E151.22351
G1 X101.782 Y97.149 E151.28598
G1 X101.219 Y98.357 E151.35247
G1 X100.464 Y99.546 E151.42274
G1 X99.666 Y100.512 E151.48525
G1 X98.696 Y101.428 E151.55181
G1 X97.561 Y102.254 E151.62184
G1 X96.39 Y102.891 E151.68835
G1 X95.222 Y103.354 E151.75103
G1 X93.937 Y103.689 E151.81728
G1 X92.539 Y103.865 E151.88758
G1 X21.21 Y103.86 E155.4462
G1 X19.888 Y103.689 E155.5127
G1 X18.602 Y103.354 E155.579
G1 X17.367 Y102.859 E155.64538
G1 X16.264 Y102.254 E155.70814
G1 X15.129 Y101.428 E155.77818
G1 X14.212 Y100.568 E155.8409
G1 X13.317 Y99.486 E155.91095
G1 X12.605 Y98.357 E155.97754
G1 X12.043 Y97.15 E156.04397
G1 X11.657 Y95.958 E156.10648
G1 X11.392 Y94.576 E156.17668
G1 X11.313 Y93.324 E156.23927
G1 X11.313 Y23.247 E159.73543
G1 X11.392 Y21.995 E159.79801
G1 X11.657 Y20.612 E159.86827
G1 X12.043 Y19.421 E159.93073
G1 X12.641 Y18.147 E160.00094
G1 X13.316 Y17.084 E160.06376
G1 X14.16 Y16.058 E160.13004
G0 F3600 X14.485 Y16.295
G1 F1800 X15.421 Y15.418 E160.19404
G1 X16.435 Y14.681 E160.25658
G1 X17.582 Y14.051 E160.32186
G1 X18.773 Y13.581 E160.38574
G1 X19.987 Y13.268 E160.44829
G1 X21.285 Y13.105 E160.51356
G1 X92.564 Y13.107 E164.06968
G1 X93.838 Y13.268 E164.13375
G1 X95.051 Y13.581 E164.19624
G1 X96.243 Y14.051 E164.26017
G1 X97.39 Y14.681 E164.32546
G1 X98.404 Y15.418 E164.388
G1 X99.34 Y16.295 E164.45199
G1 X100.17 Y17.299 E164.51698
G1 X100.856 Y18.382 E164.58094
G1 X101.4 Y19.541 E164.64481
G1 X101.787 Y20.735 E164.70743
G1 X102.033 Y22.02 E164.77271
G1 X102.112 Y23.271 E164.83524
G1 X102.112 Y93.298 E168.3289
G1 X102.033 Y94.551 E168.39154
G1 X101.787 Y95.835 E168.45676
G1 X101.392 Y97.049 E168.52046
G1 X100.845 Y98.209 E168.58444
G1 X100.17 Y99.271 E168.64722
G1 X99.34 Y100.276 E168.71225
G1 X98.404 Y101.152 E168.77621
G1 X97.39 Y101.89 E168.83878
G1 X96.243 Y102.519 E168.90404
G1 X95.051 Y102.99 E168.96798
G1 X93.838 Y103.302 E169.03047
G1 X92.539 Y103.465 E169.09579
G1 X21.26 Y103.463 E172.65191
G1 X19.987 Y103.302 E172.71593
G1 X18.773 Y102.99 E172.77846
G1 X17.582 Y102.519 E172.84236
G1 X16.435 Y101.89 E172.90762
G1 X15.421 Y101.152 E172.97019
